X:6260
T:Timour the Tartar
A:North-West
M:C|
O:England
R:Reel
Z:Richard Robinson 
%%TUNEURL: http://www.leeds.ac.uk/music/Info/RRTuneBk/gettune/00000507.html
%%ID:00000507
K:A
A2(3cBA eA (3cBA| eAaA gAfA| eA (3cBA eAfA| BEcE dEBE|\
A2(3cBA eA (3cBA| eAaA gAfA| efec eaec| BABc A4::\
E2(3GFE BE (3GFE| BEdE cEBE| A2(3cBA eA (3cBA| eAaA gAfA|\
eA (3cBA aAfA| eA (3cBA aAfA| ecag fedc| BAGF EFGE:|
